X: 30890
T: Out With The Boys
R: jig
M: 6/8
K: Gmajor
|:G3 g2 e|dBG AGE|DEG AGA|BAA ABA|
G3 g2 e|dBG AGE|DEG AGA|1 BGG G2 D:|2 BGG G2 e||
|:efe gfe|efe gfe|efe gfe|fBB B2 B|
e2 e gfg|agf gfe|BcB AGA|1 BEE E2 e:|2 BGG G2D||

